src/assets/img/icons/duotone-icons/Communication/Call.svg

<?xml version="1.0" encoding="UTF-8"?>
<svg width="24px" height="24px" viewBox="0 0 24 24" version="1.1" xmlns="http://www.w3.org/2000/svg" xmlns:xlink="http://www.w3.org/1999/xlink">
    <!-- Generator: Sketch 52.2 (67145) - http://www.bohemiancoding.com/sketch -->
    <title>Stockholm-icons / Communication / Call</title>
    <desc>Created with Sketch.</desc>
    <g id="Stockholm-icons-/-Communication-/-Call" stroke="none" stroke-width="1" fill="none" fill-rule="evenodd">
        <rect id="bound" x="0" y="0" width="24" height="24"></rect>
        <path d="M12,22 C6.4771525,22 2,17.5228475 2,12 C2,6.4771525 6.4771525,2 12,2 C17.5228475,2 22,6.4771525 22,12 C22,17.5228475 17.5228475,22 12,22 Z M11.613922,13.2130341 C11.1688026,13.6581534 10.4887934,13.7685037 9.92575695,13.4869855 C9.36272054,13.2054673 8.68271128,13.3158176 8.23759191,13.760937 L6.72658218,15.2719467 C6.67169475,15.3268342 6.63034033,15.393747 6.60579393,15.4673862 C6.51847004,15.7293579 6.66005003,16.0125179 6.92202169,16.0998418 L8.27584113,16.5511149 C9.57592638,16.9844767 11.009274,16.6461092 11.9783003,15.6770829 L15.9775173,11.6778659 C16.867756,10.7876271 17.0884566,9.42760861 16.5254202,8.3015358 L15.8928491,7.03639343 C15.8688153,6.98832598 15.8371895,6.9444475 15.7991889,6.90644684 C15.6039267,6.71118469 15.2873442,6.71118469 15.0920821,6.90644684 L13.4995401,8.49898884 C13.0544207,8.94410821 12.9440704,9.62411747 13.2255886,10.1871539 C13.5071068,10.7501903 13.3967565,11.4301996 12.9516371,11.8753189 L11.613922,13.2130341 Z" id="Combined-Shape" fill="#335EEA"></path>
    </g>
</svg>

<svg width="24" height="24" viewBox="0 0 24 24" xmlns="http://www.w3.org/2000/svg"><g fill="none" fill-rule="evenodd"><path d="M0 0h24v24H0z"/><path d="M12 22C6.477 22 2 17.523 2 12S6.477 2 12 2s10 4.477 10 10-4.477 10-10 10zm-.386-8.787a1.462 1.462 0 01-1.688.274 1.462 1.462 0 00-1.688.274l-1.511 1.51a.5.5 0 00.195.829l1.354.451c1.3.433 2.733.095 3.702-.874l4-4c.89-.89 1.11-2.25.547-3.375l-.632-1.266a.5.5 0 00-.8-.13L13.5 8.5a1.462 1.462 0 00-.274 1.688 1.462 1.462 0 01-.274 1.688l-1.338 1.338z" fill="#335EEA"/></g></svg>
